source/images/icons/icon-editorial/porte-voix.svg

<?xml version="1.0" encoding="UTF-8"?>
<svg width="80px" height="80px" viewBox="0 0 80 80" version="1.1" xmlns="http://www.w3.org/2000/svg" xmlns:xlink="http://www.w3.org/1999/xlink">
    <!-- Generator: Sketch 55.2 (78181) - https://sketchapp.com -->
    <title>Illustrative Icons/Porte-voix</title>
    <desc>Created with Sketch.</desc>
    <g id="Illustrative-Icons/Porte-voix" stroke="none" stroke-width="1" fill="none" fill-rule="evenodd">
        <path d="M55.2939452,15.0026316 C55.0001952,15.0192982 54.7085286,15.1150666 54.4501952,15.2900666 C42.6668619,23.4400668 34.9000652,24.4902618 30.3167319,24.4902618 L16.3502603,24.5068634 C13.616927,24.5068634 11.1502603,25.6900668 9.43359367,27.5400668 C7.88359367,29.1067334 7.750065,30.4067334 7.73339833,30.4567334 C7.58339833,31.1900668 7.95026033,32.0234651 8.68359367,32.2734651 C10.216927,32.8067984 11.1666667,30.7236601 11.1666667,30.7236601 C12.2333333,28.9736601 14.1335937,27.7900668 16.3502603,27.7900668 L23.6666669,27.7900668 L23.6500669,43.4902618 L16.350262,43.4902618 C14.1335953,43.4902618 12.2166683,42.3236601 11.1666683,40.5569934 C11.1666683,40.5569934 10.2335953,38.4735301 8.68359534,39.0068634 C7.950262,39.2568634 7.60006667,40.0902618 7.7334,40.8235951 C7.75006667,40.8902618 7.88359533,42.1902618 9.43359534,43.7402618 C11.150262,45.6235951 13.6169287,46.7900668 16.350262,46.7900668 L23.6666685,46.7900668 L30.3333352,63.3235951 C30.5833352,63.9569285 31.2002619,64.3401968 31.8502619,64.3401968 C32.0669285,64.3401968 32.2667335,64.3069935 32.4834002,64.2236601 C33.3334002,63.8736601 33.7167985,62.9235951 33.3834652,62.0735951 L27.0667335,46.7900668 L30.3001319,46.7900668 C46.2501319,46.7900668 53.7667336,55.2400668 54.0667336,55.6234001 C54.3834002,56.0400668 54.8667986,56.2900668 55.3834652,56.2900668 C55.5667986,56.2900668 55.7334002,56.2567335 55.9000669,56.2067335 C56.5834002,55.9900668 57.0335302,55.3735951 57.0335302,54.6569285 L57.0335302,42.8069934 C60.3001969,42.0569934 62.7334848,39.1569284 62.7334848,35.6569284 C62.7500669,32.1735951 60.3001969,29.2401968 57.0335302,28.5068634 L57.0335302,16.6403267 C57.0335302,16.0236602 56.7000669,15.4734649 56.1500669,15.1901316 C55.8834002,15.0484649 55.5876969,14.9859649 55.2939469,15.0026316 L55.2939452,15.0026316 Z M53.6666669,19.7236601 L53.6666669,50.7067335 C50.1000002,47.6900668 41.9334635,43.5068634 30.3001302,43.5068634 L27.0169269,43.5068634 L27.0169269,27.7734651 L30.3001302,27.7734651 C35.0001302,27.7734651 42.7333335,26.8069934 53.6666669,19.7236601 Z M71.0240886,25.8522418 C70.8063802,25.8475584 70.5835286,25.8861601 70.3668619,25.9736601 L65.3001302,28.4401318 C64.4501302,28.7734651 64.0335286,29.7401968 64.3668619,30.5901968 C64.6168619,31.2401968 65.2500002,31.6569284 65.9166669,31.6569284 C66.1166669,31.6569284 66.3168619,31.6234001 66.5335286,31.5400668 L71.6002602,29.0735951 C72.4502602,28.7402618 72.8835286,27.7735951 72.5335286,26.9069284 C72.2835286,26.2694284 71.6772136,25.8663034 71.0240886,25.8522418 L71.0240886,25.8522418 Z M57.0501302,31.9567334 C58.4667969,32.5734001 59.4501952,34.0069284 59.4501952,35.6569284 C59.4668619,37.2902618 58.4667969,38.7234651 57.0501302,39.3567984 L57.0501302,31.9567334 L57.0501302,31.9567334 Z M8.66666667,34.0234651 C7.75,34.0234651 7,34.7734651 7,35.6901318 C7,36.6067984 7.75,37.3567984 8.66666667,37.3567984 C9.58333334,37.3567984 10.3333333,36.6067984 10.3333333,35.6901318 C10.3333333,34.7734651 9.58333334,34.0234651 8.66666667,34.0234651 Z M66.6666669,34.0901968 C65.7500002,34.0901968 65.0000002,34.8401968 65.0000002,35.7568634 C65.0000002,36.6735301 65.7500002,37.4235301 66.6666669,37.4235301 L71.9335936,37.4235301 C72.8502602,37.4235301 73.6002602,36.6735301 73.6002602,35.7568634 C73.6002602,34.8235301 72.8502602,34.0901968 71.9335936,34.0901968 L66.6666669,34.0901968 Z M65.8688152,39.8590768 C65.2219402,39.8754768 64.6127602,40.2694284 64.3502602,40.9069284 C64.0169269,41.7569284 64.4335286,42.7235951 65.2835286,43.0735951 L70.3502602,45.5400668 C70.5502602,45.6234001 70.7501302,45.6569285 70.9667969,45.6569285 C71.6334636,45.6569285 72.2502602,45.2568635 72.5169269,44.5901968 C72.8502602,43.7401968 72.4333336,42.7734651 71.5833336,42.4401318 L66.5169269,39.9736601 C66.3044269,39.8903268 66.0844402,39.8536084 65.8688152,39.8590768 Z" id="Shape-color" fill="#ADB5BD"></path>
    </g>
</svg>

<svg width="80" height="80">
    <title>
        Illustrative Icons/Porte-voix
    </title>
    <path d="M55.294 15.003a1.672 1.672 0 0 0-.844.287c-11.783 8.15-19.55 9.2-24.133 9.2l-13.967.017a9.434 9.434 0 0 0-6.916 3.033c-1.55 1.567-1.684 2.867-1.7 2.917-.15.733.216 1.566.95 1.816 1.533.534 2.483-1.55 2.483-1.55 1.066-1.75 2.967-2.933 5.183-2.933h7.317l-.017 15.7h-7.3a5.993 5.993 0 0 1-5.183-2.933s-.933-2.083-2.483-1.55c-.734.25-1.084 1.083-.95 1.817.016.066.15 1.366 1.7 2.916a9.326 9.326 0 0 0 6.916 3.05h7.317l6.666 16.534c.25.633.867 1.016 1.517 1.016a1.7 1.7 0 0 0 .633-.116c.85-.35 1.234-1.3.9-2.15L27.067 46.79H30.3c15.95 0 23.467 8.45 23.767 8.833.316.417.8.667 1.316.667.184 0 .35-.033.517-.083a1.61 1.61 0 0 0 1.134-1.55v-11.85a7.33 7.33 0 0 0 5.7-7.15c.016-3.483-2.434-6.417-5.7-7.15V16.64c0-.616-.334-1.167-.884-1.45a1.626 1.626 0 0 0-.856-.187zm-1.627 4.72v30.984c-3.567-3.017-11.734-7.2-23.367-7.2h-3.283V27.773H30.3c4.7 0 12.433-.966 23.367-8.05zm17.357 6.13a1.656 1.656 0 0 0-.657.12L65.3 28.44a1.66 1.66 0 0 0-.933 2.15c.25.65.883 1.067 1.55 1.067.2 0 .4-.034.617-.117l5.066-2.466c.85-.334 1.284-1.3.934-2.167a1.662 1.662 0 0 0-1.51-1.055zM57.05 31.956a4.03 4.03 0 0 1 2.4 3.7c.017 1.633-.983 3.066-2.4 3.7v-7.4zM8.667 34.023c-.917 0-1.667.75-1.667 1.667s.75 1.667 1.667 1.667c.916 0 1.666-.75 1.666-1.667s-.75-1.667-1.666-1.667zm58 .067c-.917 0-1.667.75-1.667 1.667s.75 1.667 1.667 1.667h5.267c.916 0 1.666-.75 1.666-1.667a1.66 1.66 0 0 0-1.666-1.667h-5.267zm-.798 5.77a1.692 1.692 0 0 0-1.519 1.047c-.333.85.084 1.817.934 2.167l5.066 2.466a1.666 1.666 0 0 0 2.167-.95 1.66 1.66 0 0 0-.934-2.15l-5.066-2.466a1.657 1.657 0 0 0-.648-.115z" fill="#ADB5BD" fill-rule="evenodd"/>
</svg>
